!!!OTL: 311. Freude in Ehren.
!!!ARE: Europa, Mitteleuropa, Deutschland, Rheinland
!!!SCT: B0311
!!!TXL: @@DE
!!!YEM: Copyright 1995, estate of Helmut Schaffrath.
**kern	**text
*ICvox	*
*Ivox	*
*M4/4	*
*met(c)	*
*clefG2	*
*k[b-]	*
*F:	*
!LO:TX:a:t=Mäßig.	!
{8c	Ein
8f	Lied
8g	in
=1	=1
4a	Eh-
4g	-ren,
8r	.
8g	wer
8g	will's
8a	ver-
=2	=2
4b-/	-weh-
4a	-ren?
4r}	.
{4cc	Singt's
=3	=3
4.dd	Vög-
8ee	-lein
8ffL	nicht
8eeJ	.
8ddL	im
8ccJ	.
=4	=4
4.cc	Blü-
8b-	-ten-
4a}	-kranʒ
{4cc	und
=5	=5
4.ff	En-
8ee	-gel
8ddL	nicht
8ccJ	.
4dd	im
=6	=6
4.ee	Ster-
8dd	-nen-
4cc;}	-glanʒ?
!LO:TX:a:t=Lebhafter.	!
{4cc	Ein
=7	=7
8.a	gu-
16cc	-ter
8.ff	fro-
16ee	-her
4.gg	Muth,
8b-	ein
=8	=8
8.g	fri-
16a	-ſches
8.b-/	leich-
16g	-tes
4.cc}	Blut,
{8cc	geht
=9	=9
4dd	ü-
4gg	-ber
4ff	Geld
4ee	und
=10	=10
2ff	Gut.
8r}	.
==	==
!!!AGN: Geselligkeits - Lied, Freude
!!!GTL: Lieder der Freude und Geseligkeit
!!!ONB: ESAC (Essen Associative Code) Database: BOEHME
!!!AMT: simple quadruple
!!!AIN: vox
!!!EED: Helmut Schaffrath
!!!EEV: 1.0
!!Mel. nach L. Erk's Kompoſition von 1831. (Vom Volke etwas abgeändert.)
!!@@COMMENT:"Gedicht von Joh. Peter Hebel 1803 (Hochdeutſch hier durch Friedrich Girardet 1821) Original im aleman. [...]
!! Die Melodie von Ludwig Erk 1831 komponirt, ſ. Germania 282; mehrſtimmig in Erks Volksklängen JJJ. Nr. 28 und 
!!in Greefs Männerchore 7. Heſt Nr. 5. - Hier gebe ich die Melodie ſo, wie ſie das Volk am Rbein ſich ʒurecht 
!!geſungen hat: etwas abweichend vom Original, doch nicht verderbt, ſondern vereinfacht. Die Notation verdanke 
!!ich dem Herrn Seminarlehrer K. Becker in Neuwied 1894, der ſie durch Seminatiſten erhielt. Die Erlaubniß
!!ʒum Abdruck ertheilte der Vertreter der Erk'ſchen Rechtsnachfolger, Herr Carl Erk in Hannover."
!!@@END:
!!!Text: Joh. P. Hebel
!!!URL-scan: https://archive.org/details/BoehmeVtLieder1895/page/n261/mode/2up
!!!ENC: Anna Maria Matuszewska
!!!EEV: 2024/04/07
*-	*-
